X:1
T:Linwood, LM
T:Linwood, LM
T:Giaochino Antonio Rossini (1792-1868)
T:Public Domain Courtesy of the Cyber Hymnal™
C:Giaochino Antonio Rossini (1792-1868)
Z:Public Domain
Z:Courtesy of the Cyber Hymnal™
%%score ( 1 2 ) ( 3 4 )
L:1/8
M:3/4
K:F
V:1 treble 
V:2 treble 
V:3 bass 
V:4 bass 
V:1
 [FA]2 F2 [FG]2 | [FA]4 [Fc]2 | (B3 A) (GA) | F6 | C2 [CF]2 [FA]2 | (c3 d) ([Ac][FA]) | %6
 (c3 G) (=BG) | [Ec]6 | [EG]2 [EG]2 [EG]2 | [DB]4 [DB]2 | [DF]4 [DF]2 | [CA]6 | [Fd]2 [Fd]2 [Fd]2 | %13
 (c3 G) (BG) | (F>G [FA]2) [EG]2 | F6 |] %16
V:2
 x2 F2 x2 | x6 | F4 E2 | F6 | C2 x4 | G4 x2 | E4 F2 | x6 | x6 | x6 | x6 | x6 | x6 | F4 D2 | C2 x4 | %15
 F6 |] %16
V:3
 [F,C]2 [F,A,]2 [F,B,]2 | [F,C]4 [F,_E]2 | (D3 C) (B,C) | [F,A,]6 | [F,A,]2 [F,A,]2 [F,C]2 | %5
 [E,C]4 [F,C]2 | [G,C]4 [G,D]2 | [C,C]6 | (C>D) [C,C]2 [C,C]2 | G,4 G,2 | (B,>C) B,2 [B,,B,]2 | %11
 [F,A,]6 | [B,,B,]2 [B,,B,]2 [B,,B,]2 | (A,3 C) [B,,B,]2 | (A,>B, C2) [C,B,]2 | [F,A,]6 |] %16
V:4
 x6 | x6 | F,4 C,2 | x6 | x6 | x6 | x6 | x6 | C,2 x4 | G,4 G,2 | B,,4 x2 | x6 | x6 | F,4 x2 | %14
 C,4 x2 | x6 |] %16

